X:215
T:McCarthy's
R:reel
Z:transcribed by Dave Marshall
M:C|
K:Dmix
|:AD (3DDD FGAB | c2AB cAGc | AD~D2 FGAB | cAGE D2cB |
AD (3DDD FGAB | c2AB cdeg | fage d^cAG |1 FAGE D2cB :|2 FAGE D4|
|: defg afdf | g2fg edB^c | defg afdf | gfed Beef |
gfe^c d2fd |~d2fd e^cAg | fage d^cAG | FAGE D4 :|
